X: 6452
T: Cat And The Dog, The
R: slip jig
M: 9/8
K: Bminor
|:BBB BAB g2e|BBB BAB dBA|BBB BAB g2e|agf g2e dBA:|
Bee efe g2e|Bee efe dBA|Bee efe g2e|agf g2e dBA:|
GGG BAB e2d|GGG BAB dBA|GGG BAB e2d|Bee efe dBA:|
B2a ged e2d|B2a ged edA|B2a ged e2d|Bee efe dBA|
B2a ged e2d|B2a ged edA|BBB BAB g2e|agf g2e dBA||

